static/images/011-calendar.svg

<svg width="188" height="188" viewBox="0 0 188 188" fill="none" xmlns="http://www.w3.org/2000/svg">
<g clip-path="url(#clip0)">
<path d="M152.613 188H35.7383C16.3723 188 0.675781 172.22 0.675781 152.75V35.25C0.675781 15.7805 16.3723 0 35.7383 0H152.613C171.979 0 187.676 15.7805 187.676 35.25V152.75C187.676 172.22 171.979 188 152.613 188Z" fill="#FFF9DD"/>
<path d="M90.2781 125.331C90.1782 125.331 90.0798 125.326 89.9799 125.32C88.8457 125.231 87.8057 124.65 87.1337 123.728L76.422 109.04C75.1551 107.295 75.5289 104.845 77.2638 103.564C79.0058 102.289 81.4369 102.666 82.7109 104.41L90.7404 115.414L109.931 96.1213C111.45 94.5937 113.916 94.5937 115.441 96.1213C116.966 97.6488 116.96 100.127 115.441 101.661L93.0416 124.18C92.2997 124.925 91.3068 125.331 90.2781 125.331V125.331Z" fill="#FFE777"/>
<path d="M129.238 58.75H59.1133C52.6675 58.75 47.4258 64.0197 47.4258 70.5V129.25C47.4258 135.73 52.6675 141 59.1133 141H129.238C135.684 141 140.926 135.73 140.926 129.25V70.5C140.926 64.0197 135.684 58.75 129.238 58.75ZM133.136 129.25C133.136 131.412 131.388 133.169 129.238 133.169H59.1133C56.9632 133.169 55.2155 131.412 55.2155 129.25V86.3221H133.13V129.25H133.136Z" fill="#FFD200"/>
<path d="M70.8008 47H66.9031C64.7531 47 63.0054 48.7513 63.0054 50.9186V66.5872C63.0054 68.7487 64.7474 70.5057 66.9031 70.5057H70.8008C72.9509 70.5057 74.6986 68.7544 74.6986 66.5872V50.9186C74.6986 48.7513 72.9509 47 70.8008 47Z" fill="#FFE777"/>
<path d="M121.449 47H117.551C115.401 47 113.653 48.7513 113.653 50.9186V66.5872C113.653 68.7487 115.401 70.5 117.551 70.5H121.449C123.599 70.5 125.347 68.7487 125.347 66.5814V50.9186C125.341 48.7513 123.599 47 121.449 47Z" fill="#FFE777"/>
</g>
<defs>
<clipPath id="clip0">
<rect width="187" height="188" fill="white" transform="translate(0.675781)"/>
</clipPath>
</defs>
</svg>

<svg width="188" height="188" fill="none" xmlns="http://www.w3.org/2000/svg"><g clip-path="url(#clip0)"><path d="M152.613 188H35.738C16.372 188 .676 172.22.676 152.75V35.25C.676 15.78 16.372 0 35.738 0h116.875c19.366 0 35.063 15.78 35.063 35.25v117.5c0 19.47-15.697 35.25-35.063 35.25z" fill="#FFF9DD"/><path d="M90.278 125.331a3.9 3.9 0 0 1-3.144-1.603L76.422 109.04a3.938 3.938 0 0 1 .842-5.476 3.888 3.888 0 0 1 5.447.846l8.03 11.004 19.19-19.293a3.885 3.885 0 0 1 5.51 0c1.525 1.528 1.519 4.006 0 5.54l-22.4 22.519a3.893 3.893 0 0 1-2.763 1.151z" fill="#FFE777"/><path d="M129.238 58.75H59.113c-6.446 0-11.687 5.27-11.687 11.75v58.75c0 6.48 5.241 11.75 11.687 11.75h70.125c6.446 0 11.688-5.27 11.688-11.75V70.5c0-6.48-5.242-11.75-11.688-11.75zm3.898 70.5c0 2.162-1.748 3.919-3.898 3.919H59.113c-2.15 0-3.898-1.757-3.898-3.919V86.322h77.915v42.928h.006z" fill="#FFD200"/><path d="M70.8 47h-3.897c-2.15 0-3.898 1.751-3.898 3.919v15.668c0 2.162 1.742 3.919 3.898 3.919h3.898c2.15 0 3.898-1.752 3.898-3.919V50.92c0-2.17-1.749-3.92-3.899-3.92zm50.649 0h-3.898c-2.15 0-3.898 1.751-3.898 3.919v15.668a3.907 3.907 0 0 0 3.898 3.913h3.898c2.15 0 3.898-1.751 3.898-3.919V50.92c-.006-2.168-1.748-3.919-3.898-3.919z" fill="#FFE777"/></g><defs><clipPath id="clip0"><path fill="#fff" transform="translate(.676)" d="M0 0h187v188H0z"/></clipPath></defs></svg>
